icon-themes/breeze_svg/chart2/res/lc_typexy.svg

<svg viewBox="0 0 24 24" xmlns="http://www.w3.org/2000/svg"><path d="m5 3.9960938v.0039062 6 1 5 1 1h-1v1h1v1h1v-1h13.292969.707031v-.707031-.292969h-.292969-1.414062-12.292969v-1.568359-.009766-.423828-2.576172-1-.423828-1-1.0000001-3-.0097657-.9921874-2zm13 .0039062v1h1v-1zm1 1v1h1v-1zm0 1h-1v1h1zm-1 0v-1h-1v1zm-11-1v1h1v-1zm2 0v1h1v-1zm-2 2v1h1v-1zm2 0v1h1v-1zm3 1v1h1v-1zm2 0v1h1v-1zm-2 2v1h1v-1zm2 0v1h1v-1zm-6 4v1h1v-1zm1 1v1h1v-1zm0 1h-1v1h1zm-1 0v-1h-1v1z" fill="#4d4d4d"/></svg>

<svg xmlns="http://www.w3.org/2000/svg" viewBox="0 0 24 24">
 <path 
     style="fill:#4d4d4d" 
     d="M 5 3.9960938 L 5 4 L 5 10 L 5 11 L 5 16 L 5 17 L 5 18 L 4 18 L 4 19 L 5 19 L 5 20 L 6 20 L 6 19 L 19.292969 19 L 20 19 L 20 18.292969 L 20 18 L 19.707031 18 L 18.292969 18 L 6 18 L 6 16.431641 L 6 16.421875 L 6 15.998047 L 6 13.421875 L 6 12.421875 L 6 11.998047 L 6 10.998047 L 6 9.9980469 L 6 6.9980469 L 6 6.9882812 L 6 5.9960938 L 6 3.9960938 L 5 3.9960938 z M 18 4 L 18 5 L 19 5 L 19 4 L 18 4 z M 19 5 L 19 6 L 20 6 L 20 5 L 19 5 z M 19 6 L 18 6 L 18 7 L 19 7 L 19 6 z M 18 6 L 18 5 L 17 5 L 17 6 L 18 6 z M 7 5 L 7 6 L 8 6 L 8 5 L 7 5 z M 9 5 L 9 6 L 10 6 L 10 5 L 9 5 z M 7 7 L 7 8 L 8 8 L 8 7 L 7 7 z M 9 7 L 9 8 L 10 8 L 10 7 L 9 7 z M 12 8 L 12 9 L 13 9 L 13 8 L 12 8 z M 14 8 L 14 9 L 15 9 L 15 8 L 14 8 z M 12 10 L 12 11 L 13 11 L 13 10 L 12 10 z M 14 10 L 14 11 L 15 11 L 15 10 L 14 10 z M 8 14 L 8 15 L 9 15 L 9 14 L 8 14 z M 9 15 L 9 16 L 10 16 L 10 15 L 9 15 z M 9 16 L 8 16 L 8 17 L 9 17 L 9 16 z M 8 16 L 8 15 L 7 15 L 7 16 L 8 16 z "
     />
 </svg>
